X: 1
T: the Mortgage Burn
C: Gordon MacLean
O: Cape Breton
B: The Lighthouse Collection, Cranford, Cape Breton
F: http://thesession.org/tunes/2047
R: reel
M: 4/4
L: 1/8
K: A
AB |\
"A"cEBE AE~E2 | "A"cEBE AEFA \
| "Bm"BFBc BFBc | "E7"dBcA BAFA \
| "A"cEBE AE~E2 | "A"cEBE AEFA |
"Bm"dBcA BAFE | "E7"FAAB "A"A2 :: AB \
| "A"c2Bc e2ce | "D"fafe "A/c#"c2BA \
| "Bm"B2AB "A"c2Bc | "E"ecBA "D"F2 \
[1 AB | "A"c2Bc e2ce |
"D"fafe "A/c#"c2BA \
| "Bm"B2AB "E7"cBAF | EAAB "A"A2 :|\
[2 cB | "A"AFEF A2AB | "A"cBce "D"f2af \
| "A/c#"e2cA "Bm"BcAF | "E7"EAAB "A"A2 |]

%%sep 1 1 500
